X: 103
T: Lady Grove's Rant
B: 204 Favourite Country Dances
N: Published by Straight & Skillern, London ca.1775
F: http://imslp.org/wiki/204_Favourite_Country_Dances_(Various) p.52 #103
Z: 2014 John Chambers <jc:trillian.mit.edu>
M: C|
L: 1/8
K: G
% - - - - - - - - - - - - - - - - - - - - - - - - -
B |\
G/G/G dc d3g | fdcA FGAF |\
G/G/G BG Bddf | AFcA G3 :|\
|: f |\
gagf dfga | fdcA FGAf |
gagf dega | fdcB G3f |\
gagf dfga | fd/c/ dc/B/ cdfa |\
gafg dfcf | AFcA G2 :|
% - - - - - - - - - - - - - - - - - - - - - - - - -
%%begintext align
%% Cast off 2 Cu. up again cross over 1 Cu. lead up and
%% cast off set corners & turn lead out sides & turn
%%endtext

%%sep 1 1 500
%%sep 1 1 500
